app/dist/common/images/nahdi-medical-co.svg

<svg height="18" viewBox="0 0 18 18" width="18" xmlns="http://www.w3.org/2000/svg"><path d="m0 0h18v18h-18z" fill="#f0f3fa"/><path d="m6 9.5-1.5 1.47 1.5 1.48z" fill="#e86624"/><path d="m4.5 8.03-1.5 1.47 1.5 1.47z" fill="#1b75b9"/><path d="m4.5 8.03 1.5 1.47-1.5 1.47z" fill="#26a6de"/><path d="m6 9.5 1.5 1.47-1.5 1.48z" fill="#f6981f"/><path d="m3 6.55 1.52 1.48-1.52 1.47z" fill="#822c8c"/><path d="m4.5 5-1.5 1.55 1.5 1.48z" fill="#9b2421"/><path d="m4.5 5 1.5 1.55-1.5 1.48z" fill="#e92127"/><path d="m7.5 5-1.5 1.55-1.5-1.55z" fill="#d0dd4e"/><path d="m7.5 5-.83-.76a1 1 0 0 0 -.67-.24 1 1 0 0 0 -.66.24l-.84.76z" fill="#75be44"/><path d="m7.5 14-1.5-1.55 1.5-1.48z" fill="#9b2421"/><path d="m7.5 14 1.5-1.55-1.5-1.48z" fill="#e92127"/><path d="m12 9.5 1.5 1.47-1.5 1.48z" fill="#9b2421"/><path d="m13.5 8.03 1.5 1.47-1.5 1.47z" fill="#e86624"/><path d="m13.5 8.03-1.5 1.47 1.5 1.47z" fill="#f6981f"/><path d="m12 9.5-1.5 1.47 1.5 1.48z" fill="#e92127"/><path d="m15 6.55-1.5 1.48 1.5 1.47z" fill="#822c8c"/><path d="m13.5 5 1.5 1.55-1.5 1.48z" fill="#1b75b9"/><path d="m13.5 5-1.5 1.55 1.5 1.48z" fill="#26a6de"/><path d="m10.5 5 1.5 1.55 1.5-1.55z" fill="#d0dd4e"/><path d="m10.5 5 .83-.76a1 1 0 0 1 .67-.24 1 1 0 0 1 .66.24l.84.76z" fill="#75be44"/><path d="m10.5 14 1.5-1.55-1.5-1.48z" fill="#1b75b9"/><path d="m10.5 14-1.5-1.55 1.5-1.48z" fill="#26a6de"/><path d="m10.5 14-1.5-1.55-1.5 1.55z" fill="#d0dd4e"/><path d="m12 6.55-1.5-1.55-1.5 1.55z" fill="#3d8891"/><path d="m10.5 14-.83.76a1 1 0 0 1 -.67.24 1 1 0 0 1 -.66-.24l-.84-.76z" fill="#75be44"/></svg>

<!-- by TradingView --><svg width="18" height="18" viewBox="0 0 18 18" xmlns="http://www.w3.org/2000/svg"><path fill="#F0F3FA" d="M0 0h18v18H0z"/><path d="m6 9.5-1.5 1.47L6 12.45V9.5Z" fill="#E86624"/><path d="M4.5 8.03 3 9.5l1.5 1.47V8.03Z" fill="#1B75B9"/><path d="M4.5 8.03 6 9.5l-1.5 1.47V8.03Z" fill="#26A6DE"/><path d="m6 9.5 1.5 1.47L6 12.45V9.5Z" fill="#F6981F"/><path d="m3 6.55 1.52 1.48L3 9.5V6.55Z" fill="#822C8C"/><path d="M4.5 5 3 6.55l1.5 1.48V5Z" fill="#9B2421"/><path d="M4.5 5 6 6.55 4.5 8.03V5Z" fill="#E92127"/><path d="M7.5 5 6 6.55 4.5 5h3Z" fill="#D0DD4E"/><path d="m7.5 5-.83-.76A1 1 0 0 0 6 4a1 1 0 0 0-.66.24L4.5 5h3Z" fill="#75BE44"/><path d="M7.5 14 6 12.45l1.5-1.48V14Z" fill="#9B2421"/><path d="M7.5 14 9 12.45l-1.5-1.48V14Z" fill="#E92127"/><path d="m12 9.5 1.5 1.47-1.5 1.48V9.5Z" fill="#9B2421"/><path d="M13.5 8.03 15 9.5l-1.5 1.47V8.03Z" fill="#E86624"/><path d="M13.5 8.03 12 9.5l1.5 1.47V8.03Z" fill="#F6981F"/><path d="m12 9.5-1.5 1.47 1.5 1.48V9.5Z" fill="#E92127"/><path d="m15 6.55-1.5 1.48L15 9.5V6.55Z" fill="#822C8C"/><path d="M13.5 5 15 6.55l-1.5 1.48V5Z" fill="#1B75B9"/><path d="M13.5 5 12 6.55l1.5 1.48V5Z" fill="#26A6DE"/><path d="M10.5 5 12 6.55 13.5 5h-3Z" fill="#D0DD4E"/><path d="m10.5 5 .83-.76A1 1 0 0 1 12 4a1 1 0 0 1 .66.24l.84.76h-3Z" fill="#75BE44"/><path d="m10.5 14 1.5-1.55-1.5-1.48V14Z" fill="#1B75B9"/><path d="M10.5 14 9 12.45l1.5-1.48V14Z" fill="#26A6DE"/><path d="M10.5 14 9 12.45 7.5 14h3Z" fill="#D0DD4E"/><path d="M12 6.55 10.5 5 9 6.55h3Z" fill="#3D8891"/><path d="m10.5 14-.83.76A1 1 0 0 1 9 15a1 1 0 0 1-.66-.24L7.5 14h3Z" fill="#75BE44"/></svg>
